icons/op-zoom-in-24.svg

<svg width="24" height="24" viewBox="0 0 24 24" fill="none" xmlns="http://www.w3.org/2000/svg">
<path d="M19.594 17.9949L15.3096 14.0776C15.3096 14.046 15.3096 14.046 15.2781 14.046C16.0971 13.0035 16.5697 11.7083 16.5697 10.2867C16.5697 6.81162 13.7344 4 10.2691 4C6.80377 4 4 6.81162 4 10.2867C4 13.7617 6.80377 16.5733 10.2691 16.5733C11.5292 16.5733 12.6948 16.1942 13.6714 15.5624C13.7029 15.6256 13.7344 15.6888 13.7974 15.7204L18.0503 19.6377C18.5229 20.08 19.1529 20.1116 19.468 19.764L19.8145 19.385C20.1295 19.0374 20.035 18.4056 19.594 17.9949ZM10.2691 14.9306C7.71735 14.9306 5.63816 12.8456 5.63816 10.2867C5.63816 7.72777 7.71735 5.64275 10.2691 5.64275C12.8523 5.64275 14.9 7.72777 14.9 10.2867C14.9 12.8456 12.8523 14.9306 10.2691 14.9306ZM10.9307 7.53822H9.63903V9.4337H7.78036V10.7605H9.63903V12.5612H10.9307V10.7605H12.7893V9.4337H10.9307V7.53822Z" fill="black"/>
</svg>

<svg xmlns="http://www.w3.org/2000/svg" width="24" height="24" viewBox="0 0 24 24"><path d="m19.594 17.995-4.284-3.917c0-.032 0-.032-.032-.032a6.033 6.033 0 0 0 1.292-3.759C16.57 6.812 13.734 4 10.269 4 6.804 4 4 6.812 4 10.287s2.804 6.286 6.269 6.286a6.24 6.24 0 0 0 3.402-1.011c.032.064.063.127.126.158l4.253 3.918c.473.442 1.103.474 1.418.126l.346-.379c.316-.348.221-.979-.22-1.39Zm-9.325-3.064c-2.552 0-4.631-2.085-4.631-4.644s2.079-4.644 4.631-4.644a4.625 4.625 0 0 1 4.631 4.644 4.625 4.625 0 0 1-4.631 4.644Zm.662-7.393H9.639v1.896H7.78v1.327h1.859v1.8h1.292v-1.8h1.858V9.434h-1.858V7.538Z"/></svg>
